images/brands/02.svg

<?xml version="1.0" encoding="UTF-8"?>
<svg xmlns="http://www.w3.org/2000/svg" xmlns:xlink="http://www.w3.org/1999/xlink" width="158px" height="35px" viewBox="0 0 158 35" version="1.1">
<g id="surface1">
<path style=" stroke:none;fill-rule:nonzero;fill:rgb(54.901963%,8.235294%,8.235294%);fill-opacity:1;" d="M 85.722656 3.960938 C 86.984375 1.761719 89.519531 0.601562 91.976562 0.582031 C 94.21875 0.433594 96.757812 0.808594 98.332031 2.597656 C 97.527344 3.660156 96.765625 4.742188 95.96875 5.808594 C 95.078125 4.773438 94.34375 3.320312 92.902344 3.03125 C 91.484375 2.589844 89.703125 3.332031 89.335938 4.863281 C 88.738281 7.292969 89.097656 9.828125 89.007812 12.308594 L 93.613281 12.308594 L 93.613281 15.074219 L 89.003906 15.074219 C 89.003906 19.242188 89.003906 23.410156 89 27.578125 C 88.984375 28.757812 89.171875 29.929688 89.390625 31.085938 C 90.445312 31.574219 91.582031 31.828125 92.746094 31.851562 C 92.742188 32.140625 92.734375 32.71875 92.730469 33.011719 C 88.964844 32.761719 85.195312 32.6875 81.429688 33.007812 C 81.429688 32.761719 81.441406 32.277344 81.441406 32.035156 C 82.632812 31.820312 84.105469 31.265625 84.152344 29.820312 C 84.617188 24.921875 84.300781 19.988281 84.394531 15.074219 C 83.476562 15.074219 82.558594 15.074219 81.644531 15.070312 C 81.644531 14.652344 81.65625 14.234375 81.660156 13.820312 C 82.589844 13.382812 83.5 12.902344 84.394531 12.40625 C 84.394531 9.566406 84.226562 6.496094 85.722656 3.960938 Z M 153.617188 0.578125 C 151.183594 1.140625 148.714844 1.621094 146.210938 1.730469 C 146.183594 1.960938 146.136719 2.421875 146.117188 2.652344 C 147.046875 2.933594 148.566406 2.859375 148.632812 4.171875 C 149.003906 6.820312 148.742188 9.519531 148.816406 12.1875 C 145.230469 11.570312 141.21875 11.609375 138.171875 13.863281 C 134.828125 16.222656 133.683594 20.617188 134.019531 24.539062 C 134.207031 27.578125 135.714844 30.695312 138.453125 32.179688 C 141.707031 33.984375 145.875 33.613281 148.925781 31.535156 C 148.945312 32.144531 148.960938 32.761719 148.964844 33.375 C 151.328125 32.773438 153.742188 32.429688 156.167969 32.289062 L 156.167969 31.226562 C 152.726562 30.636719 153.679688 29.03125 153.4375 26.304688 C 153.445312 17.730469 153.3125 9.148438 153.617188 0.578125 Z M 144.695312 14.402344 C 146.148438 14.386719 147.625 14.855469 148.816406 15.671875 C 148.820312 20.285156 148.808594 24.898438 148.824219 29.515625 C 146.269531 30.695312 142.816406 30.609375 140.8125 28.425781 C 139.09375 26.578125 138.804688 23.871094 138.960938 21.453125 C 139.132812 19.253906 139.589844 16.742188 141.492188 15.378906 C 142.449219 14.71875 143.5625 14.414062 144.695312 14.402344 Z M 8.804688 3.394531 C 11.699219 3.214844 14.601562 3.40625 17.460938 3.8125 C 17.292969 5.867188 17.308594 7.933594 17.464844 9.988281 C 17.1875 9.988281 16.636719 9.992188 16.359375 9.992188 C 16.140625 8.710938 15.914062 7.148438 14.558594 6.578125 C 12.546875 5.726562 10.191406 5.644531 8.109375 6.25 C 5.378906 7.066406 4.933594 11.113281 6.964844 12.875 C 9.5 15.113281 12.605469 16.578125 15.203125 18.75 C 19.277344 22.015625 18.742188 29.617188 13.914062 31.902344 C 9.851562 33.796875 5.078125 33.320312 0.882812 32.128906 C 0.90625 30.09375 0.832031 28.0625 0.738281 26.03125 C 1.042969 26.023438 1.652344 26.015625 1.960938 26.007812 C 2.175781 27.285156 2.375 28.859375 3.664062 29.519531 C 5.960938 30.816406 8.925781 30.921875 11.316406 29.804688 C 14.296875 28.144531 13.75 23.347656 10.960938 21.734375 C 8.542969 19.859375 5.761719 18.472656 3.527344 16.347656 C 1.054688 14.03125 0.746094 9.96875 2.339844 7.070312 C 3.640625 4.761719 6.269531 3.609375 8.804688 3.394531 Z M 25.972656 7.746094 C 26.203125 7.753906 26.660156 7.78125 26.890625 7.792969 C 26.886719 9.335938 26.886719 10.875 26.886719 12.421875 L 33.910156 12.421875 L 33.910156 15.074219 L 26.886719 15.074219 C 26.914062 18.792969 26.828125 22.511719 26.929688 26.234375 C 27.023438 27.648438 27.0625 29.414062 28.375 30.28125 C 30.03125 31.269531 32.007812 30.652344 33.664062 30.003906 C 34.171875 31.257812 32.878906 31.960938 31.976562 32.484375 C 29.867188 33.515625 27.292969 33.625 25.109375 32.769531 C 23.246094 32.0625 22.34375 30.007812 22.246094 28.125 C 22.023438 23.777344 22.246094 19.425781 22.285156 15.078125 L 19.539062 15.078125 L 19.523438 14.207031 C 22.503906 13.074219 24.515625 10.484375 25.972656 7.746094 Z M 44.773438 11.71875 C 41.605469 11.6875 38.414062 13.269531 37.394531 16.472656 C 37.671875 16.632812 38.234375 16.945312 38.519531 17.105469 C 39.730469 14.941406 42.574219 13.832031 44.8125 15.082031 C 46.570312 15.882812 46.714844 18.046875 46.679688 19.742188 C 43.917969 20.632812 41.0625 21.339844 38.457031 22.648438 C 35.328125 24.3125 34.925781 29.027344 37.164062 31.582031 C 39.804688 34.019531 44.207031 33.625 46.8125 31.320312 C 47.609375 32.90625 49.488281 33.511719 51.125 33.046875 C 52.550781 32.769531 53.492188 31.570312 54.429688 30.554688 C 54.269531 30.367188 53.9375 29.992188 53.777344 29.800781 C 53.1875 29.953125 52.527344 30.421875 51.949219 29.964844 C 51.203125 29.449219 51.292969 28.410156 51.242188 27.605469 C 51.292969 24.175781 51.480469 20.734375 51.304688 17.292969 C 51.214844 15.519531 50.425781 13.699219 48.863281 12.765625 C 47.644531 12.082031 46.210938 11.734375 44.773438 11.71875 Z M 46.632812 22.421875 C 46.652344 24.734375 46.632812 27.050781 46.652344 29.363281 C 45.179688 30.023438 43.433594 30.636719 41.882812 29.875 C 39.988281 28.859375 40.066406 25.816406 41.632812 24.539062 C 43.136719 23.496094 44.925781 23.003906 46.632812 22.421875 Z M 46.632812 22.421875 "/>
<path style=" stroke:none;fill-rule:nonzero;fill:rgb(54.901963%,8.235294%,8.235294%);fill-opacity:1;" d="M 105.273438 11.804688 C 102.960938 11.832031 100.570312 12.410156 98.761719 13.929688 C 96.074219 16.121094 94.902344 19.753906 95.023438 23.15625 C 95.007812 26.074219 95.910156 29.183594 98.1875 31.121094 C 100.878906 33.484375 104.789062 33.71875 108.140625 33.015625 C 111.671875 32.230469 114.328125 29.113281 115.078125 25.617188 C 115.886719 21.992188 115.550781 17.773438 113.074219 14.84375 C 111.167969 12.597656 108.117188 11.746094 105.273438 11.804688 Z M 105.304688 14.28125 C 106.546875 14.304688 107.777344 14.820312 108.574219 15.820312 C 110.019531 17.597656 110.40625 20 110.511719 22.238281 C 110.527344 24.675781 110.222656 27.304688 108.695312 29.296875 C 107.199219 31.25 103.972656 31.464844 102.25 29.710938 C 100.929688 28.476562 100.433594 26.640625 100.136719 24.914062 C 99.824219 22.625 99.90625 20.238281 100.617188 18.03125 C 101.121094 16.554688 102.09375 15.054688 103.640625 14.554688 C 104.175781 14.363281 104.738281 14.269531 105.304688 14.28125 Z M 56.078125 13.210938 C 58.535156 13.171875 61.023438 12.917969 63.289062 11.894531 C 63.367188 12.484375 63.429688 13.070312 63.476562 13.667969 C 66.078125 11.953125 69.441406 11.28125 72.425781 12.34375 C 74.558594 13.066406 76.050781 15.171875 76.238281 17.402344 C 76.679688 21.644531 76.039062 25.945312 76.601562 30.179688 C 76.664062 31.511719 78.085938 31.8125 79.121094 32.03125 C 79.121094 32.277344 79.121094 32.773438 79.125 33.019531 C 75.640625 32.742188 68.660156 33.007812 68.660156 33.007812 L 68.648438 32.003906 C 68.648438 32.003906 71.167969 31.289062 71.328125 30.558594 C 71.902344 27.410156 71.765625 24.15625 71.734375 20.957031 C 71.621094 19.042969 71.667969 16.65625 69.855469 15.492188 C 67.910156 14.363281 65.527344 14.886719 63.539062 15.613281 C 63.554688 19.757812 63.539062 23.902344 63.539062 28.039062 C 63.597656 29.148438 63.515625 30.410156 64.230469 31.328125 C 64.835938 31.75 65.589844 31.824219 66.277344 32.019531 C 66.28125 32.265625 66.289062 32.769531 66.289062 33.019531 C 62.851562 32.796875 59.402344 32.648438 55.96875 33.015625 C 55.96875 32.769531 55.980469 32.277344 55.980469 32.035156 C 57.023438 31.789062 58.40625 31.460938 58.597656 30.183594 C 59.078125 27.132812 58.710938 24.011719 58.824219 20.933594 C 58.78125 19.175781 58.972656 17.398438 58.667969 15.660156 C 58.425781 14.480469 56.988281 14.542969 56.085938 14.308594 C 56.085938 14.035156 56.078125 13.488281 56.078125 13.210938 Z M 117.421875 13.117188 C 119.882812 13.085938 122.339844 12.746094 124.675781 11.957031 L 124.738281 13.777344 C 127.101562 11.863281 130.664062 11.375 133.179688 13.273438 L 130.558594 17.308594 C 129.328125 15.40625 126.847656 14.945312 124.882812 15.914062 C 124.882812 15.914062 124.871094 24.289062 124.898438 28.476562 C 125 29.410156 124.851562 30.621094 125.722656 31.230469 C 126.5625 31.726562 127.582031 31.703125 128.515625 31.851562 C 128.515625 32.140625 128.511719 32.722656 128.511719 33.011719 C 124.738281 32.753906 120.957031 32.699219 117.1875 33 L 117.1875 31.851562 C 118.40625 31.640625 119.667969 31.214844 119.855469 30.488281 C 120.375 28.6875 120.121094 26.78125 120.175781 24.925781 C 120.121094 21.972656 120.28125 19.019531 120.101562 16.074219 C 120.089844 14.640625 118.480469 14.511719 117.433594 14.304688 C 117.4375 13.898438 117.425781 13.480469 117.425781 13.117188 Z M 117.421875 13.117188 "/>
</g>
</svg>

<svg xmlns="http://www.w3.org/2000/svg" width="158" height="35"><path d="M85.723 3.96C86.984 1.763 89.52.603 91.977.583c2.242-.148 4.78.227 6.355 2.016-.805 1.062-1.566 2.144-2.363 3.21-.89-1.035-1.625-2.488-3.067-2.777-1.418-.441-3.199.301-3.566 1.832-.598 2.43-.238 4.965-.328 7.446h4.605v2.765h-4.61q0 6.252-.003 12.504c-.016 1.18.172 2.352.39 3.508a8.4 8.4 0 0 0 3.356.766l-.016 1.16c-3.765-.25-7.535-.325-11.3-.004 0-.246.011-.73.011-.973 1.192-.215 2.664-.77 2.711-2.215.465-4.898.149-9.832.243-14.746q-1.378.001-2.75-.004c0-.418.011-.836.015-1.25.93-.437 1.84-.918 2.735-1.414 0-2.84-.168-5.91 1.328-8.445M153.617.579c-2.433.563-4.902 1.043-7.406 1.152-.027.23-.074.692-.094.922.93.282 2.45.207 2.516 1.52.37 2.648.11 5.348.183 8.015-3.586-.617-7.597-.578-10.644 1.676-3.344 2.36-4.488 6.754-4.152 10.676.187 3.04 1.695 6.156 4.433 7.64 3.254 1.805 7.422 1.434 10.473-.644.02.61.035 1.227.039 1.84 2.363-.602 4.777-.945 7.203-1.086v-1.062c-3.441-.59-2.488-2.196-2.73-4.922.007-8.575-.125-17.157.18-25.727m-8.922 13.824c1.453-.015 2.93.453 4.121 1.27.004 4.613-.007 9.226.008 13.844-2.554 1.18-6.008 1.093-8.012-1.09-1.718-1.848-2.007-4.555-1.851-6.973.172-2.2.629-4.71 2.531-6.074.957-.66 2.07-.965 3.203-.977M8.805 3.395c2.894-.18 5.797.011 8.656.418a39 39 0 0 0 .004 6.175c-.277 0-.828.004-1.106.004-.218-1.281-.445-2.844-1.8-3.414-2.012-.851-4.368-.933-6.45-.328-2.73.816-3.175 4.863-1.144 6.625 2.535 2.238 5.64 3.703 8.238 5.875 4.074 3.266 3.54 10.867-1.289 13.152-4.062 1.895-8.836 1.418-13.031.227.023-2.035-.051-4.066-.145-6.098.305-.008.914-.015 1.223-.023.215 1.277.414 2.851 1.703 3.512 2.297 1.296 5.262 1.402 7.652.285 2.98-1.66 2.434-6.457-.355-8.07-2.418-1.876-5.2-3.262-7.434-5.387C1.055 14.03.747 9.968 2.34 7.07c1.3-2.308 3.93-3.46 6.465-3.675m17.168 4.351c.23.008.687.035.918.047-.004 1.543-.004 3.082-.004 4.629h7.023v2.652h-7.023c.027 3.719-.059 7.438.043 11.16.093 1.414.133 3.18 1.445 4.047 1.656.989 3.633.371 5.29-.277.507 1.254-.786 1.957-1.688 2.48-2.11 1.032-4.684 1.141-6.868.286-1.863-.708-2.765-2.762-2.863-4.645-.223-4.348 0-8.7.04-13.047h-2.747l-.016-.871c2.98-1.133 4.993-3.723 6.45-6.46m18.8 3.973c-3.168-.031-6.359 1.55-7.378 4.754.277.16.84.472 1.125.632 1.21-2.164 4.054-3.273 6.292-2.023 1.758.8 1.903 2.965 1.868 4.66-2.762.89-5.617 1.598-8.223 2.906-3.129 1.665-3.531 6.38-1.293 8.934 2.64 2.438 7.043 2.043 9.648-.262.797 1.586 2.676 2.192 4.313 1.727 1.426-.277 2.367-1.477 3.305-2.492-.16-.188-.492-.563-.653-.754-.59.152-1.25.62-1.828.164-.746-.516-.656-1.555-.707-2.36.051-3.43.238-6.87.063-10.312-.09-1.773-.88-3.594-2.442-4.527-1.218-.684-2.652-1.032-4.09-1.047m1.86 10.703c.02 2.312 0 4.629.02 6.941-1.473.66-3.22 1.274-4.77.512-1.895-1.016-1.817-4.059-.25-5.336 1.504-1.043 3.293-1.535 5-2.117m0 0" style="stroke:none;fill-rule:nonzero;fill:#8c1515;fill-opacity:1"/><path d="M105.273 11.805c-2.312.027-4.703.605-6.511 2.125-2.688 2.191-3.86 5.824-3.739 9.226-.015 2.918.887 6.028 3.165 7.965 2.69 2.363 6.601 2.598 9.953 1.895 3.53-.786 6.187-3.903 6.937-7.399.809-3.625.473-7.844-2.004-10.773-1.906-2.246-4.957-3.098-7.8-3.04m.032 2.476c1.242.024 2.472.54 3.27 1.54 1.445 1.777 1.831 4.179 1.937 6.417.015 2.438-.29 5.067-1.817 7.059-1.496 1.953-4.722 2.168-6.445.414-1.32-1.234-1.816-3.07-2.113-4.797-.313-2.289-.23-4.676.48-6.883.504-1.476 1.477-2.976 3.024-3.476a4.7 4.7 0 0 1 1.664-.274m-49.227-1.07c2.457-.04 4.945-.293 7.211-1.316.078.59.14 1.175.188 1.773 2.601-1.715 5.964-2.387 8.949-1.324 2.133.722 3.625 2.828 3.812 5.058.442 4.243-.199 8.543.364 12.778.062 1.332 1.484 1.633 2.52 1.851 0 .246 0 .742.003.989-3.484-.278-10.465-.012-10.465-.012l-.012-1.004s2.52-.715 2.68-1.445c.574-3.149.438-6.403.406-9.602-.113-1.914-.066-4.3-1.879-5.465-1.945-1.129-4.328-.605-6.316.121.016 4.145 0 8.29 0 12.426.059 1.11-.023 2.371.691 3.29.606.421 1.36.495 2.047.69.004.247.012.75.012 1-3.437-.222-6.887-.37-10.32-.003 0-.246.011-.739.011-.98 1.043-.247 2.426-.575 2.618-1.852.48-3.051.113-6.172.226-9.25-.043-1.758.149-3.536-.156-5.274-.242-1.18-1.68-1.117-2.582-1.351 0-.274-.008-.82-.008-1.098m61.344-.094c2.46-.031 4.918-.37 7.254-1.16l.062 1.82c2.364-1.914 5.926-2.402 8.442-.504l-2.621 4.036c-1.23-1.903-3.711-2.364-5.676-1.395 0 0-.012 8.375.015 12.563.102.933-.046 2.144.825 2.753.84.497 1.859.473 2.793.622l-.004 1.16c-3.774-.258-7.555-.313-11.324-.012v-1.148c1.218-.211 2.48-.637 2.667-1.364.52-1.8.266-3.707.32-5.562-.054-2.953.106-5.906-.073-8.852-.012-1.433-1.622-1.562-2.668-1.77.004-.406-.008-.824-.008-1.187Zm0 0" style="stroke:none;fill-rule:nonzero;fill:#8c1515;fill-opacity:1"/></svg>
